X: 8
T: POLKA
M: 4/4
L: 1/8
Q:1/4=120
K:G
|:B3/2c/2dB ced2|dc/2B/2cA cB/2A/2BG|B3/2c/2dB ced2|dc/2B/2cA cB/2A/2G2:
|!
|:GBAG FED2|dc/2B/2cA cB/2A/2BG|GBAG FED2|dc/2B/2cA cB/2A/2G2:|
